images/logo.svg

<svg width="119" height="35" viewBox="0 0 119 35" fill="none" xmlns="http://www.w3.org/2000/svg">
<path d="M35.0199 28V7.63636H43.054C44.5985 7.63636 45.9143 7.93134 47.0014 8.52131C48.0885 9.10464 48.9171 9.91667 49.4872 10.9574C50.0639 11.9915 50.3523 13.1847 50.3523 14.5369C50.3523 15.8892 50.0606 17.0824 49.4773 18.1165C48.8939 19.1506 48.0488 19.956 46.9418 20.5327C45.8414 21.1094 44.509 21.3977 42.9446 21.3977H37.8239V17.9474H42.2486C43.0772 17.9474 43.7599 17.8049 44.2969 17.5199C44.8404 17.2282 45.2448 16.8272 45.5099 16.3168C45.7817 15.7997 45.9176 15.2064 45.9176 14.5369C45.9176 13.8608 45.7817 13.2708 45.5099 12.767C45.2448 12.2566 44.8404 11.8622 44.2969 11.5838C43.7533 11.2988 43.0639 11.1562 42.2287 11.1562H39.3253V28H35.0199ZM57.0142 28.2884C56.0398 28.2884 55.1714 28.1193 54.4091 27.7812C53.6468 27.4366 53.0436 26.9295 52.5994 26.2599C52.1619 25.5838 51.9432 24.742 51.9432 23.7344C51.9432 22.8859 52.099 22.1733 52.4105 21.5966C52.7221 21.0199 53.1463 20.5559 53.6832 20.2045C54.2202 19.8532 54.83 19.5881 55.5128 19.4091C56.2022 19.2301 56.9247 19.1042 57.6804 19.0312C58.5687 18.9384 59.2846 18.8523 59.8281 18.7727C60.3717 18.6866 60.7661 18.5606 61.0114 18.3949C61.2566 18.2292 61.3793 17.9839 61.3793 17.6591V17.5994C61.3793 16.9697 61.1804 16.4825 60.7827 16.1378C60.3916 15.7931 59.8348 15.6207 59.1122 15.6207C58.3499 15.6207 57.7434 15.7898 57.2926 16.1278C56.8419 16.4593 56.5436 16.8769 56.3977 17.3807L52.4801 17.0625C52.679 16.1345 53.0701 15.3324 53.6534 14.6562C54.2367 13.9735 54.9891 13.4498 55.9105 13.0852C56.8385 12.714 57.9124 12.5284 59.1321 12.5284C59.9806 12.5284 60.7926 12.6278 61.5682 12.8267C62.3504 13.0256 63.0431 13.3338 63.6463 13.7514C64.2562 14.169 64.7367 14.706 65.0881 15.3622C65.4394 16.0118 65.6151 16.7907 65.6151 17.6989V28H61.598V25.8821H61.4787C61.2334 26.3594 60.9053 26.7803 60.4943 27.1449C60.0833 27.5028 59.5895 27.7846 59.0128 27.9901C58.4361 28.1889 57.7699 28.2884 57.0142 28.2884ZM58.2273 25.3651C58.8504 25.3651 59.4006 25.2424 59.8778 24.9972C60.3551 24.7453 60.7296 24.4072 61.0014 23.983C61.2732 23.5587 61.4091 23.0781 61.4091 22.5412V20.9205C61.2765 21.0066 61.0942 21.0862 60.8622 21.1591C60.6368 21.2254 60.3816 21.2884 60.0966 21.348C59.8116 21.401 59.5265 21.4508 59.2415 21.4972C58.9564 21.5369 58.6979 21.5734 58.4659 21.6065C57.9688 21.6795 57.5346 21.7955 57.1634 21.9545C56.7921 22.1136 56.5038 22.3291 56.2983 22.6009C56.0928 22.866 55.9901 23.1974 55.9901 23.5952C55.9901 24.1719 56.1989 24.6127 56.6165 24.9176C57.0407 25.2159 57.5777 25.3651 58.2273 25.3651ZM75.782 34.0455C74.4098 34.0455 73.2332 33.8565 72.2521 33.4787C71.2777 33.1075 70.5021 32.6004 69.9254 31.9574C69.3487 31.3144 68.9742 30.5919 68.8018 29.7898L72.7195 29.2628C72.8388 29.5677 73.0277 29.8527 73.2862 30.1179C73.5447 30.383 73.8861 30.5952 74.3104 30.7543C74.7412 30.92 75.2649 31.0028 75.8814 31.0028C76.8028 31.0028 77.5618 30.7775 78.1584 30.3267C78.7616 29.8826 79.0632 29.1368 79.0632 28.0895V25.2955H78.8842C78.6986 25.7197 78.4202 26.1207 78.049 26.4986C77.6778 26.8764 77.2005 27.1847 76.6172 27.4233C76.0339 27.6619 75.3378 27.7812 74.5291 27.7812C73.3823 27.7812 72.3383 27.5161 71.397 26.9858C70.4624 26.4489 69.7166 25.6302 69.1598 24.5298C68.6096 23.4228 68.3345 22.0241 68.3345 20.3338C68.3345 18.6037 68.6162 17.1586 69.1797 15.9986C69.7431 14.8385 70.4922 13.9702 71.4268 13.3935C72.3681 12.8168 73.3989 12.5284 74.5192 12.5284C75.3743 12.5284 76.0902 12.6742 76.6669 12.9659C77.2436 13.2509 77.7076 13.6089 78.0589 14.0398C78.4169 14.464 78.692 14.8816 78.8842 15.2926H79.0433V12.7273H83.2493V28.1491C83.2493 29.4484 82.9311 30.5355 82.2947 31.4105C81.6584 32.2855 80.7768 32.9418 79.6499 33.3793C78.5296 33.8234 77.2403 34.0455 75.782 34.0455ZM75.8714 24.5994C76.5542 24.5994 77.1309 24.4304 77.6016 24.0923C78.0788 23.7476 78.4434 23.2571 78.6953 22.6207C78.9538 21.9777 79.0831 21.2088 79.0831 20.3139C79.0831 19.419 78.9571 18.6435 78.7053 17.9872C78.4534 17.3243 78.0888 16.8106 77.6115 16.446C77.1342 16.0814 76.5542 15.8991 75.8714 15.8991C75.1754 15.8991 74.5888 16.0881 74.1115 16.4659C73.6342 16.8371 73.273 17.3542 73.0277 18.017C72.7824 18.6799 72.6598 19.4455 72.6598 20.3139C72.6598 21.1955 72.7824 21.9579 73.0277 22.6009C73.2796 23.2372 73.6409 23.7311 74.1115 24.0824C74.5888 24.4271 75.1754 24.5994 75.8714 24.5994ZM93.5803 28.2983C92.0092 28.2983 90.657 27.9801 89.5234 27.3438C88.3965 26.7008 87.5282 25.7926 86.9183 24.6193C86.3085 23.4394 86.0036 22.044 86.0036 20.4332C86.0036 18.8622 86.3085 17.4834 86.9183 16.2969C87.5282 15.1103 88.3866 14.1856 89.4936 13.5227C90.6072 12.8598 91.9131 12.5284 93.4112 12.5284C94.4188 12.5284 95.3568 12.6908 96.2251 13.0156C97.1001 13.3338 97.8625 13.8144 98.5121 14.4574C99.1683 15.1004 99.6787 15.9091 100.043 16.8835C100.408 17.8513 100.59 18.9848 100.59 20.2841V21.4474H87.6939V18.8224H96.603C96.603 18.2126 96.4704 17.6723 96.2053 17.2017C95.9401 16.7311 95.5722 16.3632 95.1016 16.098C94.6375 15.8262 94.0973 15.6903 93.4808 15.6903C92.8378 15.6903 92.2678 15.8395 91.7706 16.1378C91.2801 16.4295 90.8956 16.8239 90.6172 17.321C90.3388 17.8116 90.1963 18.3584 90.1896 18.9616V21.4574C90.1896 22.2131 90.3288 22.866 90.6072 23.4162C90.8923 23.9664 91.2933 24.3906 91.8104 24.6889C92.3274 24.9872 92.9406 25.1364 93.6499 25.1364C94.1205 25.1364 94.5514 25.0701 94.9425 24.9375C95.3336 24.8049 95.6683 24.6061 95.9467 24.3409C96.2251 24.0758 96.4373 23.7509 96.5831 23.3665L100.501 23.625C100.302 24.5663 99.8942 25.3883 99.2777 26.0909C98.6679 26.7869 97.879 27.3305 96.9112 27.7216C95.95 28.1061 94.8397 28.2983 93.5803 28.2983ZM116.062 17.0824L112.184 17.321C112.118 16.9896 111.975 16.6913 111.756 16.4261C111.538 16.1544 111.249 15.9389 110.891 15.7798C110.54 15.6141 110.119 15.5312 109.629 15.5312C108.972 15.5312 108.419 15.6705 107.968 15.9489C107.517 16.2206 107.292 16.5852 107.292 17.0426C107.292 17.4072 107.438 17.7154 107.729 17.9673C108.021 18.2192 108.522 18.4214 109.231 18.5739L111.995 19.1307C113.48 19.4356 114.587 19.9261 115.316 20.6023C116.045 21.2784 116.41 22.1667 116.41 23.267C116.41 24.268 116.115 25.1463 115.525 25.902C114.942 26.6577 114.139 27.2476 113.119 27.6719C112.104 28.0895 110.934 28.2983 109.609 28.2983C107.587 28.2983 105.976 27.8774 104.776 27.0355C103.583 26.187 102.884 25.0336 102.678 23.5753L106.844 23.3565C106.97 23.973 107.275 24.4437 107.759 24.7685C108.243 25.0866 108.863 25.2457 109.619 25.2457C110.361 25.2457 110.958 25.1032 111.408 24.8182C111.866 24.5265 112.098 24.152 112.104 23.6946C112.098 23.3101 111.935 22.9953 111.617 22.75C111.299 22.4981 110.808 22.3059 110.146 22.1733L107.501 21.6463C106.009 21.348 104.899 20.831 104.17 20.0952C103.447 19.3594 103.086 18.4214 103.086 17.2812C103.086 16.3002 103.351 15.455 103.881 14.7457C104.418 14.0365 105.171 13.4896 106.138 13.1051C107.113 12.7206 108.253 12.5284 109.559 12.5284C111.488 12.5284 113.006 12.9361 114.113 13.7514C115.227 14.5668 115.876 15.6771 116.062 17.0824Z" fill="#F5F8FC"/>
<path d="M3.56348 25.4H24.5V3H3.5057C1.57228 3.00642 0.00635613 4.58725 0 6.53908V27.1646H0.00057783C0.00057783 27.1733 0 27.1821 0 27.1908C0 29.2558 1.60521 31 3.5057 31H24.5V29.1333H3.5057C2.63895 29.1333 1.84906 28.2076 1.84906 27.1908C1.84906 26.2202 2.63433 25.4 3.56348 25.4ZM5.54717 4.88592H11.0943V14.9671L8.29764 12.4885L5.54717 14.9525V4.88592ZM1.84906 6.55367C1.84617 5.62617 2.58695 4.87192 3.5057 4.86667H3.69811H5.54717H3.69811V17.4667H5.52637L8.30458 14.9782L11.1117 17.4667H12.9434V4.86667H22.6509V23.5333H5.55179H3.70274H3.56348C2.96196 23.5333 2.37141 23.692 1.84963 23.993V6.55367H1.84906Z" fill="#FFCA42"/>
</svg>

<svg width="119" height="35" fill="none" xmlns="http://www.w3.org/2000/svg">
  <path d="M35.02 28V7.636h8.034c1.544 0 2.86.295 3.947.885 1.088.584 1.916 1.396 2.486 2.436.577 1.034.865 2.228.865 3.58 0 1.352-.291 2.545-.875 3.58-.583 1.034-1.428 1.839-2.535 2.416-1.1.576-2.433.865-3.997.865h-5.121v-3.45h4.425c.828 0 1.51-.143 2.048-.428a2.834 2.834 0 0 0 1.213-1.203c.272-.517.408-1.11.408-1.78 0-.676-.136-1.266-.408-1.77a2.722 2.722 0 0 0-1.213-1.183c-.544-.285-1.233-.428-2.068-.428h-2.904V28H35.02Zm21.994.288c-.974 0-1.843-.169-2.605-.507a4.193 4.193 0 0 1-1.81-1.521c-.437-.676-.656-1.518-.656-2.526 0-.848.156-1.56.468-2.137a3.785 3.785 0 0 1 1.272-1.393 6.175 6.175 0 0 1 1.83-.795c.69-.179 1.412-.305 2.167-.378a54.73 54.73 0 0 0 2.148-.258c.544-.086.938-.212 1.183-.378.246-.166.368-.411.368-.736v-.06c0-.63-.199-1.116-.596-1.461-.391-.345-.948-.517-1.67-.517-.763 0-1.37.169-1.82.507-.451.331-.75.749-.895 1.253l-3.918-.319c.199-.928.59-1.73 1.173-2.406.584-.683 1.336-1.206 2.258-1.57.928-.372 2.001-.558 3.221-.558.849 0 1.66.1 2.436.299a6.374 6.374 0 0 1 2.078.924c.61.418 1.09.955 1.442 1.611.351.65.527 1.429.527 2.337V28h-4.017v-2.118h-.12a4.31 4.31 0 0 1-.984 1.263c-.41.358-.904.64-1.481.845-.577.199-1.243.298-1.999.298Zm1.213-2.923c.623 0 1.174-.123 1.65-.368.478-.252.853-.59 1.124-1.014.272-.424.408-.905.408-1.442v-1.62a2.272 2.272 0 0 1-.547.238 9.95 9.95 0 0 1-.765.189c-.285.053-.57.103-.855.15l-.776.108a5.248 5.248 0 0 0-1.303.348c-.37.16-.66.375-.865.647-.205.265-.308.596-.308.994 0 .577.209 1.018.627 1.323.424.298.96.447 1.61.447Zm17.555 8.68c-1.372 0-2.549-.189-3.53-.566-.974-.371-1.75-.879-2.327-1.522a4.678 4.678 0 0 1-1.123-2.167l3.917-.527c.12.305.309.59.567.855.259.265.6.477 1.024.636.431.166.955.249 1.571.249.922 0 1.68-.226 2.277-.676.604-.444.905-1.19.905-2.238v-2.793h-.179a4.026 4.026 0 0 1-.835 1.203c-.371.377-.849.686-1.432.924-.583.239-1.28.358-2.088.358-1.147 0-2.19-.265-3.132-.795-.935-.537-1.68-1.356-2.237-2.456-.55-1.107-.825-2.506-.825-4.196 0-1.73.281-3.175.845-4.335.563-1.16 1.312-2.029 2.247-2.606a5.807 5.807 0 0 1 3.092-.865c.855 0 1.571.146 2.148.438.577.285 1.04.643 1.392 1.074.358.424.633.842.825 1.253h.16v-2.566h4.205V28.15c0 1.3-.318 2.386-.954 3.261-.637.875-1.518 1.532-2.645 1.97-1.12.443-2.41.665-3.868.665Zm.09-9.446c.682 0 1.259-.169 1.73-.507.477-.344.841-.835 1.093-1.471.259-.643.388-1.412.388-2.307s-.126-1.67-.378-2.327c-.252-.663-.616-1.176-1.093-1.541-.478-.365-1.058-.547-1.74-.547-.697 0-1.283.19-1.76.567-.478.371-.839.888-1.084 1.551-.246.663-.368 1.428-.368 2.297 0 .881.122 1.644.368 2.287.252.636.613 1.13 1.084 1.481.477.345 1.063.517 1.76.517Zm17.708 3.7c-1.57 0-2.923-.319-4.057-.955a6.538 6.538 0 0 1-2.605-2.725c-.61-1.18-.914-2.575-.914-4.186 0-1.57.304-2.95.914-4.136.61-1.187 1.469-2.111 2.576-2.774 1.113-.663 2.42-.995 3.917-.995 1.008 0 1.946.163 2.814.488a6.243 6.243 0 0 1 2.287 1.441c.656.643 1.167 1.452 1.531 2.427.365.967.547 2.1.547 3.4v1.163H87.694v-2.625h8.909c0-.61-.133-1.15-.398-1.62a2.85 2.85 0 0 0-1.103-1.104c-.465-.272-1.005-.408-1.621-.408-.643 0-1.213.15-1.71.448-.49.291-.875.686-1.154 1.183a3.343 3.343 0 0 0-.427 1.64v2.496c0 .756.139 1.409.417 1.96.285.55.686.974 1.203 1.272.517.298 1.13.447 1.84.447.47 0 .901-.066 1.292-.198a2.682 2.682 0 0 0 1.005-.597c.278-.265.49-.59.636-.975l3.918.259a5.35 5.35 0 0 1-1.223 2.466c-.61.696-1.399 1.24-2.367 1.63-.961.385-2.071.577-3.33.577Zm22.482-11.217-3.878.239a2 2 0 0 0-.428-.895 2.264 2.264 0 0 0-.865-.646c-.351-.166-.772-.249-1.262-.249-.657 0-1.21.14-1.661.418-.451.272-.676.636-.676 1.094 0 .364.146.672.437.924.292.252.793.454 1.502.607l2.764.557c1.485.305 2.592.795 3.321 1.471.729.676 1.094 1.565 1.094 2.665 0 1.001-.295 1.88-.885 2.635-.583.756-1.386 1.346-2.406 1.77-1.015.418-2.185.626-3.51.626-2.022 0-3.633-.42-4.833-1.262-1.193-.849-1.892-2.002-2.098-3.46l4.166-.22c.126.617.431 1.088.915 1.412.484.319 1.104.478 1.86.478.742 0 1.339-.143 1.789-.428.458-.292.69-.666.696-1.123-.006-.385-.169-.7-.487-.945-.318-.252-.809-.444-1.471-.577l-2.645-.527c-1.492-.298-2.602-.815-3.331-1.55-.723-.737-1.084-1.675-1.084-2.815 0-.98.265-1.826.795-2.535.537-.71 1.29-1.256 2.257-1.64.975-.385 2.115-.578 3.421-.578 1.929 0 3.447.408 4.554 1.223 1.114.816 1.763 1.926 1.949 3.331Z" fill="#F5F8FC"/>
  <path d="M3.563 25.4H24.5V3H3.506C1.572 3.006.006 4.587 0 6.54V27.19C0 29.256 1.605 31 3.506 31H24.5v-1.867H3.506c-.867 0-1.657-.925-1.657-1.942 0-.97.785-1.791 1.714-1.791ZM5.547 4.886h5.547v10.081l-2.796-2.479-2.75 2.465V4.886ZM1.85 6.554a1.674 1.674 0 0 1 1.657-1.687H5.548h-1.85v12.6h1.828l2.779-2.489 2.807 2.489h1.831v-12.6h9.708v18.666H3.563c-.601 0-1.192.159-1.713.46V6.553Z" fill="#FFCA42"/>
</svg>
